app/assets/images/icons/active/website.svg

<?xml version="1.0" encoding="UTF-8" standalone="no"?>
<svg width="32px" height="232px" viewBox="0 0 32 232" version="1.1" xmlns="http://www.w3.org/2000/svg" xmlns:xlink="http://www.w3.org/1999/xlink" xmlns:sketch="http://www.bohemiancoding.com/sketch/ns">
    <title>website</title>
    <description>Created with Sketch (http://www.bohemiancoding.com/sketch)</description>
    <defs></defs>
    <g id="Graphics" stroke="none" stroke-width="1" fill="none" fill-rule="evenodd" sketch:type="MSPage">
        <path d="M25.3300101,166.806085 C23.3280101,165.021085 20.5210101,163.996085 17.2630101,164.000085 C12.9570101,163.988085 9.51901009,165.248085 6.93101009,167.841085 C4.68101009,170.119085 3.49601009,173.181085 3.50001009,176.621085 C3.49801009,179.890085 4.64801009,182.863085 6.76901009,184.955085 C9.22001009,187.412085 12.4490101,188.722085 16.0270101,188.722085 L16.0430101,188.722085 C18.0520101,188.722085 20.0500101,188.424085 21.9740101,187.830085 C22.3650101,187.713085 22.7380101,187.580085 23.0780101,187.437085 L23.0990101,187.422085 L23.2240101,187.353085 C23.7280101,187.080085 24.0500101,186.553085 24.0500101,185.972085 C24.0500101,185.101085 23.3490101,184.385085 22.4760101,184.385085 C22.3470101,184.385085 22.2200101,184.412085 22.1010101,184.437085 L22.0520101,184.453085 L22.0230101,184.461085 L21.8570101,184.517085 C21.5190101,184.639085 21.1950101,184.736085 20.8260101,184.851085 L20.5430101,184.937085 C19.2750101,185.322085 17.7710101,185.541085 16.3450101,185.541085 C10.9250101,185.508085 7.26501009,181.859085 7.24201009,176.455085 C7.26301009,170.996085 11.1890101,167.271085 17.0390101,167.236085 C18.9820101,167.234085 20.7320101,167.664085 21.9310101,168.385085 C22.4370101,168.699085 22.8820101,169.084085 23.2750101,169.521085 L21.3650101,169.521085 C20.9020101,169.523085 20.4880101,169.627085 20.1420101,169.798085 C19.8860101,169.929085 19.6560101,170.072085 19.4920101,170.322085 C18.7970101,169.328085 17.8100101,168.892085 16.4330101,168.937085 C12.5370101,168.976085 9.50201009,173.021085 9.49801009,177.678085 C9.49801009,179.257085 9.91001009,180.605085 10.7280101,181.562085 C11.5410101,182.527085 12.7560101,183.060085 14.1520101,183.057085 C15.6050101,183.078085 16.7770101,182.568085 17.7670101,181.507085 C17.8160101,181.761085 17.8790101,181.929085 17.9820101,182.090085 C18.4920101,182.881085 19.4610101,183.248085 20.5060101,183.252085 C22.4250101,183.250085 24.3450101,182.392085 25.8160101,180.928085 C27.5540101,179.191085 28.5000101,176.759085 28.5000101,174.121085 C28.5020101,171.162085 27.3320101,168.599085 25.3300101,166.806085 M17.2010101,177.851085 C16.4430101,179.332085 15.5070101,179.988085 14.6270101,179.980085 C14.3320101,179.980085 13.9800101,179.918085 13.7180101,179.674085 C13.4590101,179.431085 13.1810101,178.955085 13.1770101,177.898085 C13.1730101,176.699085 13.6110101,175.041085 14.2710101,173.814085 C14.9760101,172.502085 15.8820101,171.906085 16.8430101,171.904085 C17.6890101,171.916085 18.2590101,172.506085 18.2930101,173.652085 C18.2950101,174.861085 17.8610101,176.564085 17.2010101,177.851085 M22.8550101,179.379085 C22.3000101,179.828085 21.6380101,180.074085 21.2050101,180.068085 C20.7500101,180.019085 20.6910101,179.949085 20.6440101,179.537085 L20.6440101,179.299085 C20.7010101,179.002085 20.9370101,178.047085 21.1600101,177.232085 L22.4100101,172.599085 C22.5230101,172.111085 22.8670101,170.918085 23.0720101,170.245085 L23.2790101,169.525085 C24.3940101,170.759085 25.0350101,172.428085 25.0350101,174.263085 C25.0410101,176.357085 24.1300101,178.400085 22.8550101,179.379085" id="website--lp-blue" fill="#1D4F8D" sketch:type="MSShapeGroup"></path>
        <path d="M25.3300101,126.806085 C23.3280101,125.021085 20.5210101,123.996085 17.2630101,124.000085 C12.9570101,123.988085 9.51901009,125.248085 6.93101009,127.841085 C4.68101009,130.119085 3.49601009,133.181085 3.50001009,136.621085 C3.49801009,139.890085 4.64801009,142.863085 6.76901009,144.955085 C9.22001009,147.412085 12.4490101,148.722085 16.0270101,148.722085 L16.0430101,148.722085 C18.0520101,148.722085 20.0500101,148.424085 21.9740101,147.830085 C22.3650101,147.713085 22.7380101,147.580085 23.0780101,147.437085 L23.0990101,147.422085 L23.2240101,147.353085 C23.7280101,147.080085 24.0500101,146.553085 24.0500101,145.972085 C24.0500101,145.101085 23.3490101,144.385085 22.4760101,144.385085 C22.3470101,144.385085 22.2200101,144.412085 22.1010101,144.437085 L22.0520101,144.453085 L22.0230101,144.461085 L21.8570101,144.517085 C21.5190101,144.639085 21.1950101,144.736085 20.8260101,144.851085 L20.5430101,144.937085 C19.2750101,145.322085 17.7710101,145.541085 16.3450101,145.541085 C10.9250101,145.508085 7.26501009,141.859085 7.24201009,136.455085 C7.26301009,130.996085 11.1890101,127.271085 17.0390101,127.236085 C18.9820101,127.234085 20.7320101,127.664085 21.9310101,128.385085 C22.4370101,128.699085 22.8820101,129.084085 23.2750101,129.521085 L21.3650101,129.521085 C20.9020101,129.523085 20.4880101,129.627085 20.1420101,129.798085 C19.8860101,129.929085 19.6560101,130.072085 19.4920101,130.322085 C18.7970101,129.328085 17.8100101,128.892085 16.4330101,128.937085 C12.5370101,128.976085 9.50201009,133.021085 9.49801009,137.678085 C9.49801009,139.257085 9.91001009,140.605085 10.7280101,141.562085 C11.5410101,142.527085 12.7560101,143.060085 14.1520101,143.057085 C15.6050101,143.078085 16.7770101,142.568085 17.7670101,141.507085 C17.8160101,141.761085 17.8790101,141.929085 17.9820101,142.090085 C18.4920101,142.881085 19.4610101,143.248085 20.5060101,143.252085 C22.4250101,143.250085 24.3450101,142.392085 25.8160101,140.928085 C27.5540101,139.191085 28.5000101,136.759085 28.5000101,134.121085 C28.5020101,131.162085 27.3320101,128.599085 25.3300101,126.806085 M17.2010101,137.851085 C16.4430101,139.332085 15.5070101,139.988085 14.6270101,139.980085 C14.3320101,139.980085 13.9800101,139.918085 13.7180101,139.674085 C13.4590101,139.431085 13.1810101,138.955085 13.1770101,137.898085 C13.1730101,136.699085 13.6110101,135.041085 14.2710101,133.814085 C14.9760101,132.502085 15.8820101,131.906085 16.8430101,131.904085 C17.6890101,131.916085 18.2590101,132.506085 18.2930101,133.652085 C18.2950101,134.861085 17.8610101,136.564085 17.2010101,137.851085 M22.8550101,139.379085 C22.3000101,139.828085 21.6380101,140.074085 21.2050101,140.068085 C20.7500101,140.019085 20.6910101,139.949085 20.6440101,139.537085 L20.6440101,139.299085 C20.7010101,139.002085 20.9370101,138.047085 21.1600101,137.232085 L22.4100101,132.599085 C22.5230101,132.111085 22.8670101,130.918085 23.0720101,130.245085 L23.2790101,129.525085 C24.3940101,130.759085 25.0350101,132.428085 25.0350101,134.263085 C25.0410101,136.357085 24.1300101,138.400085 22.8550101,139.379085" id="website--white" fill="#FFFFFF" sketch:type="MSShapeGroup"></path>
        <path d="M25.3300101,86.8060849 C23.3280101,85.0210849 20.5210101,83.9960849 17.2630101,84.0000849 C12.9570101,83.9880849 9.51901009,85.2480849 6.93101009,87.8410849 C4.68101009,90.1190849 3.49601009,93.1810849 3.50001009,96.6210849 C3.49801009,99.8900849 4.64801009,102.863085 6.76901009,104.955085 C9.22001009,107.412085 12.4490101,108.722085 16.0270101,108.722085 L16.0430101,108.722085 C18.0520101,108.722085 20.0500101,108.424085 21.9740101,107.830085 C22.3650101,107.713085 22.7380101,107.580085 23.0780101,107.437085 L23.0990101,107.422085 L23.2240101,107.353085 C23.7280101,107.080085 24.0500101,106.553085 24.0500101,105.972085 C24.0500101,105.101085 23.3490101,104.385085 22.4760101,104.385085 C22.3470101,104.385085 22.2200101,104.412085 22.1010101,104.437085 L22.0520101,104.453085 L22.0230101,104.461085 L21.8570101,104.517085 C21.5190101,104.639085 21.1950101,104.736085 20.8260101,104.851085 L20.5430101,104.937085 C19.2750101,105.322085 17.7710101,105.541085 16.3450101,105.541085 C10.9250101,105.508085 7.26501009,101.859085 7.24201009,96.4550849 C7.26301009,90.9960849 11.1890101,87.2710849 17.0390101,87.2360849 C18.9820101,87.2340849 20.7320101,87.6640849 21.9310101,88.3850849 C22.4370101,88.6990849 22.8820101,89.0840849 23.2750101,89.5210849 L21.3650101,89.5210849 C20.9020101,89.5230849 20.4880101,89.6270849 20.1420101,89.7980849 C19.8860101,89.9290849 19.6560101,90.0720849 19.4920101,90.3220849 C18.7970101,89.3280849 17.8100101,88.8920849 16.4330101,88.9370849 C12.5370101,88.9760849 9.50201009,93.0210849 9.49801009,97.6780849 C9.49801009,99.2570849 9.91001009,100.605085 10.7280101,101.562085 C11.5410101,102.527085 12.7560101,103.060085 14.1520101,103.057085 C15.6050101,103.078085 16.7770101,102.568085 17.7670101,101.507085 C17.8160101,101.761085 17.8790101,101.929085 17.9820101,102.090085 C18.4920101,102.881085 19.4610101,103.248085 20.5060101,103.252085 C22.4250101,103.250085 24.3450101,102.392085 25.8160101,100.928085 C27.5540101,99.1910849 28.5000101,96.7590849 28.5000101,94.1210849 C28.5020101,91.1620849 27.3320101,88.5990849 25.3300101,86.8060849 M17.2010101,97.8510849 C16.4430101,99.3320849 15.5070101,99.9880849 14.6270101,99.9800849 C14.3320101,99.9800849 13.9800101,99.9180849 13.7180101,99.6740849 C13.4590101,99.4310849 13.1810101,98.9550849 13.1770101,97.8980849 C13.1730101,96.6990849 13.6110101,95.0410849 14.2710101,93.8140849 C14.9760101,92.5020849 15.8820101,91.9060849 16.8430101,91.9040849 C17.6890101,91.9160849 18.2590101,92.5060849 18.2930101,93.6520849 C18.2950101,94.8610849 17.8610101,96.5640849 17.2010101,97.8510849 M22.8550101,99.3790849 C22.3000101,99.8280849 21.6380101,100.074085 21.2050101,100.068085 C20.7500101,100.019085 20.6910101,99.9490849 20.6440101,99.5370849 L20.6440101,99.2990849 C20.7010101,99.0020849 20.9370101,98.0470849 21.1600101,97.2320849 L22.4100101,92.5990849 C22.5230101,92.1110849 22.8670101,90.9180849 23.0720101,90.2450849 L23.2790101,89.5250849 C24.3940101,90.7590849 25.0350101,92.4280849 25.0350101,94.2630849 C25.0410101,96.3570849 24.1300101,98.4000849 22.8550101,99.3790849" id="website--subdued-grey" fill="#E5EDF5" sketch:type="MSShapeGroup"></path>
        <path d="M25.3300101,46.8060849 C23.3280101,45.0210849 20.5210101,43.9960849 17.2630101,44.0000849 C12.9570101,43.9880849 9.51901009,45.2480849 6.93101009,47.8410849 C4.68101009,50.1190849 3.49601009,53.1810849 3.50001009,56.6210849 C3.49801009,59.8900849 4.64801009,62.8630849 6.76901009,64.9550849 C9.22001009,67.4120849 12.4490101,68.7220849 16.0270101,68.7220849 L16.0430101,68.7220849 C18.0520101,68.7220849 20.0500101,68.4240849 21.9740101,67.8300849 C22.3650101,67.7130849 22.7380101,67.5800849 23.0780101,67.4370849 L23.0990101,67.4220849 L23.2240101,67.3530849 C23.7280101,67.0800849 24.0500101,66.5530849 24.0500101,65.9720849 C24.0500101,65.1010849 23.3490101,64.3850849 22.4760101,64.3850849 C22.3470101,64.3850849 22.2200101,64.4120849 22.1010101,64.4370849 L22.0520101,64.4530849 L22.0230101,64.4610849 L21.8570101,64.5170849 C21.5190101,64.6390849 21.1950101,64.7360849 20.8260101,64.8510849 L20.5430101,64.9370849 C19.2750101,65.3220849 17.7710101,65.5410849 16.3450101,65.5410849 C10.9250101,65.5080849 7.26501009,61.8590849 7.24201009,56.4550849 C7.26301009,50.9960849 11.1890101,47.2710849 17.0390101,47.2360849 C18.9820101,47.2340849 20.7320101,47.6640849 21.9310101,48.3850849 C22.4370101,48.6990849 22.8820101,49.0840849 23.2750101,49.5210849 L21.3650101,49.5210849 C20.9020101,49.5230849 20.4880101,49.6270849 20.1420101,49.7980849 C19.8860101,49.9290849 19.6560101,50.0720849 19.4920101,50.3220849 C18.7970101,49.3280849 17.8100101,48.8920849 16.4330101,48.9370849 C12.5370101,48.9760849 9.50201009,53.0210849 9.49801009,57.6780849 C9.49801009,59.2570849 9.91001009,60.6050849 10.7280101,61.5620849 C11.5410101,62.5270849 12.7560101,63.0600849 14.1520101,63.0570849 C15.6050101,63.0780849 16.7770101,62.5680849 17.7670101,61.5070849 C17.8160101,61.7610849 17.8790101,61.9290849 17.9820101,62.0900849 C18.4920101,62.8810849 19.4610101,63.2480849 20.5060101,63.2520849 C22.4250101,63.2500849 24.3450101,62.3920849 25.8160101,60.9280849 C27.5540101,59.1910849 28.5000101,56.7590849 28.5000101,54.1210849 C28.5020101,51.1620849 27.3320101,48.5990849 25.3300101,46.8060849 M17.2010101,57.8510849 C16.4430101,59.3320849 15.5070101,59.9880849 14.6270101,59.9800849 C14.3320101,59.9800849 13.9800101,59.9180849 13.7180101,59.6740849 C13.4590101,59.4310849 13.1810101,58.9550849 13.1770101,57.8980849 C13.1730101,56.6990849 13.6110101,55.0410849 14.2710101,53.8140849 C14.9760101,52.5020849 15.8820101,51.9060849 16.8430101,51.9040849 C17.6890101,51.9160849 18.2590101,52.5060849 18.2930101,53.6520849 C18.2950101,54.8610849 17.8610101,56.5640849 17.2010101,57.8510849 M22.8550101,59.3790849 C22.3000101,59.8280849 21.6380101,60.0740849 21.2050101,60.0680849 C20.7500101,60.0190849 20.6910101,59.9490849 20.6440101,59.5370849 L20.6440101,59.2990849 C20.7010101,59.0020849 20.9370101,58.0470849 21.1600101,57.2320849 L22.4100101,52.5990849 C22.5230101,52.1110849 22.8670101,50.9180849 23.0720101,50.2450849 L23.2790101,49.5250849 C24.3940101,50.7590849 25.0350101,52.4280849 25.0350101,54.2630849 C25.0410101,56.3570849 24.1300101,58.4000849 22.8550101,59.3790849" id="website--body-grey" fill="#67737B" sketch:type="MSShapeGroup"></path>
        <path d="M25.3300101,6.8060849 C23.3280101,5.0210849 20.5210101,3.9960849 17.2630101,4.0000849 C12.9570101,3.9880849 9.51901009,5.2480849 6.93101009,7.8410849 C4.68101009,10.1190849 3.49601009,13.1810849 3.50001009,16.6210849 C3.49801009,19.8900849 4.64801009,22.8630849 6.76901009,24.9550849 C9.22001009,27.4120849 12.4490101,28.7220849 16.0270101,28.7220849 L16.0430101,28.7220849 C18.0520101,28.7220849 20.0500101,28.4240849 21.9740101,27.8300849 C22.3650101,27.7130849 22.7380101,27.5800849 23.0780101,27.4370849 L23.0990101,27.4220849 L23.2240101,27.3530849 C23.7280101,27.0800849 24.0500101,26.5530849 24.0500101,25.9720849 C24.0500101,25.1010849 23.3490101,24.3850849 22.4760101,24.3850849 C22.3470101,24.3850849 22.2200101,24.4120849 22.1010101,24.4370849 L22.0520101,24.4530849 L22.0230101,24.4610849 L21.8570101,24.5170849 C21.5190101,24.6390849 21.1950101,24.7360849 20.8260101,24.8510849 L20.5430101,24.9370849 C19.2750101,25.3220849 17.7710101,25.5410849 16.3450101,25.5410849 C10.9250101,25.5080849 7.26501009,21.8590849 7.24201009,16.4550849 C7.26301009,10.9960849 11.1890101,7.2710849 17.0390101,7.2360849 C18.9820101,7.2340849 20.7320101,7.6640849 21.9310101,8.3850849 C22.4370101,8.6990849 22.8820101,9.0840849 23.2750101,9.5210849 L21.3650101,9.5210849 C20.9020101,9.5230849 20.4880101,9.6270849 20.1420101,9.7980849 C19.8860101,9.9290849 19.6560101,10.0720849 19.4920101,10.3220849 C18.7970101,9.3280849 17.8100101,8.8920849 16.4330101,8.9370849 C12.5370101,8.9760849 9.50201009,13.0210849 9.49801009,17.6780849 C9.49801009,19.2570849 9.91001009,20.6050849 10.7280101,21.5620849 C11.5410101,22.5270849 12.7560101,23.0600849 14.1520101,23.0570849 C15.6050101,23.0780849 16.7770101,22.5680849 17.7670101,21.5070849 C17.8160101,21.7610849 17.8790101,21.9290849 17.9820101,22.0900849 C18.4920101,22.8810849 19.4610101,23.2480849 20.5060101,23.2520849 C22.4250101,23.2500849 24.3450101,22.3920849 25.8160101,20.9280849 C27.5540101,19.1910849 28.5000101,16.7590849 28.5000101,14.1210849 C28.5020101,11.1620849 27.3320101,8.5990849 25.3300101,6.8060849 M17.2010101,17.8510849 C16.4430101,19.3320849 15.5070101,19.9880849 14.6270101,19.9800849 C14.3320101,19.9800849 13.9800101,19.9180849 13.7180101,19.6740849 C13.4590101,19.4310849 13.1810101,18.9550849 13.1770101,17.8980849 C13.1730101,16.6990849 13.6110101,15.0410849 14.2710101,13.8140849 C14.9760101,12.5020849 15.8820101,11.9060849 16.8430101,11.9040849 C17.6890101,11.9160849 18.2590101,12.5060849 18.2930101,13.6520849 C18.2950101,14.8610849 17.8610101,16.5640849 17.2010101,17.8510849 M22.8550101,19.3790849 C22.3000101,19.8280849 21.6380101,20.0740849 21.2050101,20.0680849 C20.7500101,20.0190849 20.6910101,19.9490849 20.6440101,19.5370849 L20.6440101,19.2990849 C20.7010101,19.0020849 20.9370101,18.0470849 21.1600101,17.2320849 L22.4100101,12.5990849 C22.5230101,12.1110849 22.8670101,10.9180849 23.0720101,10.2450849 L23.2790101,9.5250849 C24.3940101,10.7590849 25.0350101,12.4280849 25.0350101,14.2630849 C25.0410101,16.3570849 24.1300101,18.4000849 22.8550101,19.3790849" id="website--title-grey" fill="#3A434E" sketch:type="MSShapeGroup"></path>
    </g>
</svg>

<svg width="32" height="232" viewBox="0 0 32 232" xmlns="http://www.w3.org/2000/svg" xmlns:sketch="http://www.bohemiancoding.com/sketch/ns"><title>website</title><g sketch:type="MSPage" fill="none"><path d="M25.33 166.806c-2.002-1.785-4.809-2.81-8.067-2.806-4.306-.012-7.744 1.248-10.332 3.841-2.25 2.278-3.435 5.34-3.431 8.78-.002 3.269 1.148 6.242 3.269 8.334 2.451 2.457 5.68 3.767 9.258 3.767h.016c2.009 0 4.007-.298 5.931-.892.391-.117.764-.25 1.104-.393l.021-.015.125-.069c.504-.273.826-.8.826-1.381 0-.871-.701-1.587-1.574-1.587-.129 0-.256.027-.375.052l-.049.016-.029.008-.166.056c-.338.122-.662.219-1.031.334l-.283.086c-1.268.385-2.772.604-4.198.604-5.42-.033-9.08-3.682-9.103-9.086.021-5.459 3.947-9.184 9.797-9.219 1.943-.002 3.693.428 4.892 1.149.506.314.951.699 1.344 1.136h-1.91c-.463.002-.877.106-1.223.277-.256.131-.486.274-.65.524-.695-.994-1.682-1.43-3.059-1.385-3.896.039-6.931 4.084-6.935 8.741 0 1.579.412 2.927 1.23 3.884.813.965 2.028 1.498 3.424 1.495 1.453.021 2.625-.489 3.615-1.55.049.254.112.422.215.583.51.791 1.479 1.158 2.524 1.162 1.919-.002 3.839-.86 5.31-2.324 1.738-1.737 2.684-4.169 2.684-6.807.002-2.959-1.168-5.522-3.17-7.315m-8.129 11.045c-.758 1.481-1.694 2.137-2.574 2.129-.295 0-.647-.062-.909-.306-.259-.243-.537-.719-.541-1.776-.004-1.199.434-2.857 1.094-4.084.705-1.312 1.611-1.908 2.572-1.91.846.012 1.416.602 1.45 1.748.002 1.209-.432 2.912-1.092 4.199m5.654 1.528c-.555.449-1.217.695-1.65.689-.455-.049-.514-.119-.561-.531v-.238c.057-.297.293-1.252.516-2.067l1.25-4.633c.113-.488.457-1.681.662-2.354l.207-.72c1.115 1.234 1.756 2.903 1.756 4.738.006 2.094-.905 4.137-2.18 5.116" fill="#1D4F8D" sketch:type="MSShapeGroup"/><path d="M25.33 126.806c-2.002-1.785-4.809-2.81-8.067-2.806-4.306-.012-7.744 1.248-10.332 3.841-2.25 2.278-3.435 5.34-3.431 8.78-.002 3.269 1.148 6.242 3.269 8.334 2.451 2.457 5.68 3.767 9.258 3.767h.016c2.009 0 4.007-.298 5.931-.892.391-.117.764-.25 1.104-.393l.021-.015.125-.069c.504-.273.826-.8.826-1.381 0-.871-.701-1.587-1.574-1.587-.129 0-.256.027-.375.052l-.049.016-.029.008-.166.056c-.338.122-.662.219-1.031.334l-.283.086c-1.268.385-2.772.604-4.198.604-5.42-.033-9.08-3.682-9.103-9.086.021-5.459 3.947-9.184 9.797-9.219 1.943-.002 3.693.428 4.892 1.149.506.314.951.699 1.344 1.136h-1.91c-.463.002-.877.106-1.223.277-.256.131-.486.274-.65.524-.695-.994-1.682-1.43-3.059-1.385-3.896.039-6.931 4.084-6.935 8.741 0 1.579.412 2.927 1.23 3.884.813.965 2.028 1.498 3.424 1.495 1.453.021 2.625-.489 3.615-1.55.049.254.112.422.215.583.51.791 1.479 1.158 2.524 1.162 1.919-.002 3.839-.86 5.31-2.324 1.738-1.737 2.684-4.169 2.684-6.807.002-2.959-1.168-5.522-3.17-7.315m-8.129 11.045c-.758 1.481-1.694 2.137-2.574 2.129-.295 0-.647-.062-.909-.306-.259-.243-.537-.719-.541-1.776-.004-1.199.434-2.857 1.094-4.084.705-1.312 1.611-1.908 2.572-1.91.846.012 1.416.602 1.45 1.748.002 1.209-.432 2.912-1.092 4.199m5.654 1.528c-.555.449-1.217.695-1.65.689-.455-.049-.514-.119-.561-.531v-.238c.057-.297.293-1.252.516-2.067l1.25-4.633c.113-.488.457-1.681.662-2.354l.207-.72c1.115 1.234 1.756 2.903 1.756 4.738.006 2.094-.905 4.137-2.18 5.116" fill="#fff" sketch:type="MSShapeGroup"/><path d="M25.33 86.806c-2.002-1.785-4.809-2.81-8.067-2.806-4.306-.012-7.744 1.248-10.332 3.841-2.25 2.278-3.435 5.34-3.431 8.78-.002 3.269 1.148 6.242 3.269 8.334 2.451 2.457 5.68 3.767 9.258 3.767h.016c2.009 0 4.007-.298 5.931-.892.391-.117.764-.25 1.104-.393l.021-.015.125-.069c.504-.273.826-.8.826-1.381 0-.871-.701-1.587-1.574-1.587-.129 0-.256.027-.375.052l-.049.016-.029.008-.166.056c-.338.122-.662.219-1.031.334l-.283.086c-1.268.385-2.772.604-4.198.604-5.42-.033-9.08-3.682-9.103-9.086.021-5.459 3.947-9.184 9.797-9.219 1.943-.002 3.693.428 4.892 1.149.506.314.951.699 1.344 1.136h-1.91c-.463.002-.877.106-1.223.277-.256.131-.486.274-.65.524-.695-.994-1.682-1.43-3.059-1.385-3.896.039-6.931 4.084-6.935 8.741 0 1.579.412 2.927 1.23 3.884.813.965 2.028 1.498 3.424 1.495 1.453.021 2.625-.489 3.615-1.55.049.254.112.422.215.583.51.791 1.479 1.158 2.524 1.162 1.919-.002 3.839-.86 5.31-2.324 1.738-1.737 2.684-4.169 2.684-6.807.002-2.959-1.168-5.522-3.17-7.315m-8.129 11.045c-.758 1.481-1.694 2.137-2.574 2.129-.295 0-.647-.062-.909-.306-.259-.243-.537-.719-.541-1.776-.004-1.199.434-2.857 1.094-4.084.705-1.312 1.611-1.908 2.572-1.91.846.012 1.416.602 1.45 1.748.002 1.209-.432 2.912-1.092 4.199m5.654 1.528c-.555.449-1.217.695-1.65.689-.455-.049-.514-.119-.561-.531v-.238c.057-.297.293-1.252.516-2.067l1.25-4.633c.113-.488.457-1.681.662-2.354l.207-.72c1.115 1.234 1.756 2.903 1.756 4.738.006 2.094-.905 4.137-2.18 5.116" fill="#E5EDF5" sketch:type="MSShapeGroup"/><path d="M25.33 46.806c-2.002-1.785-4.809-2.81-8.067-2.806-4.306-.012-7.744 1.248-10.332 3.841-2.25 2.278-3.435 5.34-3.431 8.78-.002 3.269 1.148 6.242 3.269 8.334 2.451 2.457 5.68 3.767 9.258 3.767h.016c2.009 0 4.007-.298 5.931-.892.391-.117.764-.25 1.104-.393l.021-.015.125-.069c.504-.273.826-.8.826-1.381 0-.871-.701-1.587-1.574-1.587-.129 0-.256.027-.375.052l-.049.016-.029.008-.166.056c-.338.122-.662.219-1.031.334l-.283.086c-1.268.385-2.772.604-4.198.604-5.42-.033-9.08-3.682-9.103-9.086.021-5.459 3.947-9.184 9.797-9.219 1.943-.002 3.693.428 4.892 1.149.506.314.951.699 1.344 1.136h-1.91c-.463.002-.877.106-1.223.277-.256.131-.486.274-.65.524-.695-.994-1.682-1.43-3.059-1.385-3.896.039-6.931 4.084-6.935 8.741 0 1.579.412 2.927 1.23 3.884.813.965 2.028 1.498 3.424 1.495 1.453.021 2.625-.489 3.615-1.55.049.254.112.422.215.583.51.791 1.479 1.158 2.524 1.162 1.919-.002 3.839-.86 5.31-2.324 1.738-1.737 2.684-4.169 2.684-6.807.002-2.959-1.168-5.522-3.17-7.315m-8.129 11.045c-.758 1.481-1.694 2.137-2.574 2.129-.295 0-.647-.062-.909-.306-.259-.243-.537-.719-.541-1.776-.004-1.199.434-2.857 1.094-4.084.705-1.312 1.611-1.908 2.572-1.91.846.012 1.416.602 1.45 1.748.002 1.209-.432 2.912-1.092 4.199m5.654 1.528c-.555.449-1.217.695-1.65.689-.455-.049-.514-.119-.561-.531v-.238c.057-.297.293-1.252.516-2.067l1.25-4.633c.113-.488.457-1.681.662-2.354l.207-.72c1.115 1.234 1.756 2.903 1.756 4.738.006 2.094-.905 4.137-2.18 5.116" fill="#67737B" sketch:type="MSShapeGroup"/><path d="M25.33 6.806c-2.002-1.785-4.809-2.81-8.067-2.806-4.306-.012-7.744 1.248-10.332 3.841-2.25 2.278-3.435 5.34-3.431 8.78-.002 3.269 1.148 6.242 3.269 8.334 2.451 2.457 5.68 3.767 9.258 3.767h.016c2.009 0 4.007-.298 5.931-.892.391-.117.764-.25 1.104-.393l.021-.015.125-.069c.504-.273.826-.8.826-1.381 0-.871-.701-1.587-1.574-1.587-.129 0-.256.027-.375.052l-.049.016-.029.008-.166.056c-.338.122-.662.219-1.031.334l-.283.086c-1.268.385-2.772.604-4.198.604-5.42-.033-9.08-3.682-9.103-9.086.021-5.459 3.947-9.184 9.797-9.219 1.943-.002 3.693.428 4.892 1.149.506.314.951.699 1.344 1.136h-1.91c-.463.002-.877.106-1.223.277-.256.131-.486.274-.65.524-.695-.994-1.682-1.43-3.059-1.385-3.896.039-6.931 4.084-6.935 8.741 0 1.579.412 2.927 1.23 3.884.813.965 2.028 1.498 3.424 1.495 1.453.021 2.625-.489 3.615-1.55.049.254.112.422.215.583.51.791 1.479 1.158 2.524 1.162 1.919-.002 3.839-.86 5.31-2.324 1.738-1.737 2.684-4.169 2.684-6.807.002-2.959-1.168-5.522-3.17-7.315m-8.129 11.045c-.758 1.481-1.694 2.137-2.574 2.129-.295 0-.647-.062-.909-.306-.259-.243-.537-.719-.541-1.776-.004-1.199.434-2.857 1.094-4.084.705-1.312 1.611-1.908 2.572-1.91.846.012 1.416.602 1.45 1.748.002 1.209-.432 2.912-1.092 4.199m5.654 1.528c-.555.449-1.217.695-1.65.689-.455-.049-.514-.119-.561-.531v-.238c.057-.297.293-1.252.516-2.067l1.25-4.633c.113-.488.457-1.681.662-2.354l.207-.72c1.115 1.234 1.756 2.903 1.756 4.738.006 2.094-.905 4.137-2.18 5.116" fill="#3A434E" sketch:type="MSShapeGroup"/></g></svg>
